X:1
T:Sugar Hill - J'nF version
C:DAD/Traditional Fiddle Tune
M:4/4
L:1/4
K:D
|:"D"A, B, D D/2E/2|F E D D/2E/2|F E D A,|"Bm"D4
|"D"A, B, D D/2E/2|F E D2|"A"E2 F E|"D"D4:|
|:"D"F A2 B|A F D2|F A2 A|"Bm"B4
|"D"F A2 B|A F D2|"A"E2 F E|"D"D4:||
